X: 29002
T: Naughty Naomi
R: reel
M: 4/4
K: Dmajor
(3A,B,C|D2FA BFdF|BAFD EDB,D|A,DFG AFED|BdAF E2FG|
A2FA BFdF|BAFD CEDB,|A,DFA BGEC|E2D2 D2:|
(3ABc|d2fg afbf|eAA fAA gA|fgad bagf|edcB A2Bc|
d2fg afbf|egg cgg ^Ag|fadf egBc|e2d2 d2(3ABc|
d2fg afbf|eAA fAA gA|fgad bagf|edcB AGFE|
D2FA BFdF|BAFD CEDB,|A,DFA BGEC|E2D2 D2||

